img/advantages__icon-01.svg

<svg width="56" height="56" viewBox="0 0 56 56" fill="none" xmlns="http://www.w3.org/2000/svg">
<g clip-path="url(#clip0)">
<path d="M54.8999 41.6034C53.0214 39.7249 50.5237 38.6902 47.867 38.6902C45.496 38.6902 43.2517 39.5142 41.4611 41.0269C37.5575 37.7362 31.698 37.9284 28.023 41.6034C27.8682 41.7581 27.7814 41.9679 27.7814 42.1866C27.7814 49.7298 33.9183 55.8667 41.4614 55.8667C49.0046 55.8667 55.1415 49.7298 55.1415 42.1866C55.1414 41.9679 55.0546 41.758 54.8999 41.6034ZM40.6641 42.5223C40.7965 42.8191 41.0912 43.0113 41.4175 43.0113H41.5055C41.8319 43.0113 42.1268 42.819 42.259 42.5221C43.793 41.1121 45.7707 40.3398 47.8671 40.3398C49.7548 40.3398 51.5452 40.9678 53.0031 42.1219C46.4703 48.1141 36.3936 48.138 29.8332 42.192C32.9972 39.6238 37.6261 39.7328 40.6641 42.5223ZM41.4613 54.217C35.4971 54.217 30.5336 49.8545 29.5923 44.1527C33.0237 46.9057 37.2016 48.2833 41.3801 48.2833C45.6348 48.2833 49.8888 46.8553 53.3549 44.0011C52.4776 49.7769 47.4784 54.217 41.4613 54.217Z" fill="url(#paint0_linear)"/>
<path d="M21.6693 24.4883C21.4193 24.3397 21.1094 24.3337 20.8539 24.4725C20.7073 24.5521 17.2207 26.4687 13.3512 30.4725C9.77922 34.1685 5.21172 40.4127 3.73657 49.1716C3.45034 50.8713 3.92536 52.6019 5.04011 53.9201C6.15792 55.2419 7.79143 56 9.52186 56H16.9821C19.7889 56 22.0724 53.7166 22.0724 50.9097V25.1972C22.0725 24.9063 21.9193 24.6371 21.6693 24.4883ZM20.4229 50.9097C20.4229 52.8069 18.8794 54.3504 16.9822 54.3504H9.52197C8.27782 54.3504 7.10336 53.8053 6.29967 52.8549C5.49904 51.9083 5.15779 50.6657 5.36342 49.4457C6.76418 41.1282 11.1031 35.1837 14.4963 31.6616C16.8552 29.2131 19.0988 27.5601 20.4229 26.6794V50.9097Z" fill="url(#paint1_linear)"/>
<path d="M13.1974 48.9509C11.0889 48.9509 8.9613 49.5778 8.9613 50.9786C8.9613 51.4341 9.33055 51.8034 9.7861 51.8034C10.1902 51.8034 10.5266 51.5126 10.5971 51.1288C10.8414 50.93 11.7809 50.6005 13.1974 50.6005C14.6139 50.6005 15.5533 50.93 15.7977 51.1288C15.8683 51.5125 16.2046 51.8034 16.6087 51.8034C17.0642 51.8034 17.4335 51.4341 17.4335 50.9786C17.4335 49.5778 15.3058 48.9509 13.1974 48.9509Z" fill="url(#paint2_linear)"/>
<path d="M29.9349 12.8885C29.7322 12.5989 25.9488 7.27256 20.5662 4.87233L21.9954 1.8025C22.1877 1.38961 22.0088 0.898953 21.5958 0.706781C21.183 0.5145 20.6923 0.693438 20.5001 1.10644L19.0211 4.28356C18.266 4.04556 17.4856 3.87352 16.6847 3.78481V0.824797C16.6847 0.36925 16.3155 0 15.8599 0C15.4044 0 15.0351 0.36925 15.0351 0.824797V3.72564C14.2045 3.75911 13.3936 3.88598 12.6074 4.08734L11.2197 1.10633C11.0274 0.693328 10.5369 0.5145 10.124 0.706672C9.71098 0.898953 9.53215 1.3895 9.72432 1.80239L11.0268 4.60009C5.30065 6.84031 1.21834 12.5873 1.00757 12.8885C0.808837 13.1725 0.808837 13.5505 1.00757 13.8344C1.26963 14.209 7.51834 23.0069 15.4713 23.0069C23.4242 23.0069 29.6729 14.2088 29.935 13.8343C30.1336 13.5504 30.1336 13.1725 29.9349 12.8885ZM11.0318 6.39187C12.4237 5.76581 13.9198 5.3655 15.4712 5.3655C17.0232 5.3655 18.521 5.76778 19.9151 6.39647C21.0478 7.56033 21.6718 9.09114 21.6718 10.7185C21.6718 12.3748 21.0268 13.9319 19.8557 15.103C18.6847 16.2741 17.1275 16.9192 15.4711 16.9192C13.8148 16.9192 12.2577 16.2742 11.0866 15.103C8.68799 12.7043 8.6706 8.81388 11.0318 6.39187ZM15.4714 21.3575C9.36831 21.3575 4.09993 15.1443 2.71404 13.3611C3.47912 12.3745 5.42971 10.0346 8.05395 8.13947C7.77012 8.95803 7.62104 9.8268 7.62104 10.7186C7.62104 12.8155 8.43763 14.7868 9.92032 16.2695C11.403 17.7523 13.3744 18.5688 15.4712 18.5688C17.568 18.5688 19.5395 17.7522 21.0221 16.2695C22.5049 14.7868 23.3214 12.8156 23.3214 10.7186C23.3214 9.82877 23.1729 8.96208 22.8903 8.14516C25.5114 10.0394 27.4622 12.3759 28.2284 13.3616C26.8415 15.1459 21.5736 21.3575 15.4714 21.3575Z" fill="url(#paint3_linear)"/>
<path d="M15.4711 6.60449C13.383 6.60449 11.6843 8.3032 11.6843 10.3913C11.6843 12.4794 13.383 14.1781 15.4711 14.1781C17.5592 14.1781 19.2579 12.4794 19.2579 10.3913C19.2579 8.3032 17.5592 6.60449 15.4711 6.60449ZM15.4711 12.5285C14.2927 12.5285 13.3339 11.5697 13.3339 10.3913C13.3339 9.21287 14.2927 8.25409 15.4711 8.25409C16.6495 8.25409 17.6083 9.21287 17.6083 10.3913C17.6083 11.5697 16.6496 12.5285 15.4711 12.5285Z" fill="url(#paint4_linear)"/>
<path d="M44.3844 18.5829C42.2964 18.5829 40.5977 20.2816 40.5977 22.3697C40.5977 24.4578 42.2964 26.1565 44.3844 26.1565C46.4725 26.1565 48.1712 24.4578 48.1712 22.3697C48.1712 20.2816 46.4725 18.5829 44.3844 18.5829ZM44.3844 24.5069C43.206 24.5069 42.2473 23.5481 42.2473 22.3697C42.2473 21.1912 43.206 20.2325 44.3844 20.2325C45.5628 20.2325 46.5216 21.1913 46.5216 22.3697C46.5216 23.5482 45.563 24.5069 44.3844 24.5069Z" fill="url(#paint5_linear)"/>
<path d="M53.9509 23.5832C54.4065 23.5832 54.7757 23.214 54.7757 22.7584C54.7757 22.3029 54.4065 21.9336 53.9509 21.9336H51.0501C51.0166 21.103 50.8897 20.2921 50.6884 19.506L53.6694 18.1183C54.0824 17.926 54.2612 17.4355 54.069 17.0226C53.8768 16.6097 53.3862 16.4309 52.9733 16.6229L50.1756 17.9252C47.9354 12.1991 42.1884 8.11683 41.8873 7.90606C41.6034 7.70722 41.2254 7.70722 40.9414 7.90606C40.5668 8.16812 31.7688 14.4168 31.7688 22.3698C31.7688 30.3228 40.5669 36.5715 40.9414 36.8336C41.0834 36.933 41.2489 36.9825 41.4142 36.9825C41.5796 36.9825 41.7451 36.9329 41.8871 36.8336C42.1767 36.6309 47.503 32.8475 49.9032 27.4649L52.9733 28.8941C53.086 28.9466 53.2043 28.9715 53.3208 28.9715C53.6315 28.9715 53.9293 28.7949 54.069 28.4945C54.2613 28.0815 54.0824 27.5909 53.6694 27.3988L50.4922 25.9198C50.7302 25.1647 50.9022 24.3842 50.9909 23.5834H53.9509V23.5832ZM41.4138 35.1271C39.6295 33.7428 33.4183 28.4835 33.4183 22.3697C33.4183 16.2666 39.6317 10.9982 41.4148 9.61231C42.4014 10.3777 44.7412 12.3283 46.6364 14.9527C45.8178 14.6687 44.949 14.5196 44.0571 14.5196C41.9603 14.5196 39.9889 15.3362 38.5062 16.8189C37.0234 18.3016 36.2069 20.2729 36.2069 22.3698C36.2069 24.4667 37.0234 26.438 38.5062 27.9207C39.9889 29.4035 41.9603 30.22 44.0571 30.22C44.947 30.22 45.8136 30.0716 46.6306 29.7889C44.7361 32.4102 42.3993 34.3611 41.4138 35.1271ZM48.3791 26.8136C47.2153 27.9464 45.6844 28.5704 44.0569 28.5704C42.4006 28.5704 40.8435 27.9254 39.6723 26.7543C38.5013 25.5832 37.8562 24.0261 37.8562 22.3698C37.8562 20.7137 38.5012 19.1565 39.6723 17.9853C40.8435 16.8142 42.4006 16.1692 44.0569 16.1692C45.6864 16.1692 47.2191 16.7947 48.3836 17.9303C49.0097 19.3221 49.4101 20.8182 49.4101 22.3696C49.4102 23.9217 49.0078 25.4195 48.3791 26.8136Z" fill="url(#paint6_linear)"/>
<path d="M19.1457 31.8864C18.8978 31.5043 18.3869 31.3956 18.0048 31.6435C12.2009 35.4095 9.34154 43.3234 9.22265 43.6585C9.07029 44.0877 9.29484 44.5594 9.72413 44.7116C9.81535 44.744 9.90832 44.7593 9.99998 44.7593C10.3394 44.7593 10.6574 44.5483 10.7773 44.2101C10.8045 44.1333 13.5633 36.492 18.9028 33.0273C19.2849 32.7795 19.3937 32.2686 19.1457 31.8864Z" fill="url(#paint7_linear)"/>
<path d="M52.2858 4.60676C49.3314 1.65221 45.3973 0.0251465 41.2082 0.0251465C37.019 0.0251465 33.0851 1.65221 30.1306 4.60665C29.6462 5.09107 29.3794 5.73507 29.3794 6.42019C29.3794 7.10532 29.6462 7.74932 30.1306 8.23374C31.1308 9.23376 32.7578 9.23354 33.7576 8.23363C37.8658 4.12551 44.5506 4.12551 48.6587 8.23363C49.1431 8.71805 49.7872 8.98482 50.4723 8.98482C51.1573 8.98482 51.8014 8.71805 52.2858 8.23363C53.2858 7.23372 53.2858 5.60666 52.2858 4.60676ZM51.1194 7.06736C50.9465 7.24018 50.7167 7.33544 50.4724 7.33544C50.228 7.33544 49.998 7.24018 49.8253 7.06736C47.4496 4.69163 44.329 3.50393 41.2083 3.50393C38.0876 3.50393 34.9669 4.69174 32.5912 7.06736C32.2344 7.42415 31.654 7.42415 31.2971 7.06736C31.1241 6.89444 31.029 6.66465 31.029 6.4203C31.029 6.17596 31.1241 5.94594 31.297 5.77324C33.9398 3.1303 37.4597 1.67485 41.2082 1.67485C44.9567 1.67485 48.4765 3.1303 51.1194 5.77324C51.2924 5.94616 51.3875 6.17596 51.3875 6.4203C51.3876 6.66476 51.2924 6.89455 51.1194 7.06736Z" fill="url(#paint8_linear)"/>
<path d="M28.5726 27.0955C28.4175 26.8812 28.169 26.7543 27.9045 26.7543C27.6401 26.7543 27.3916 26.8812 27.2365 27.0955C26.6602 27.8916 24.7799 30.6 24.7799 32.0264C24.7799 33.7493 26.1817 35.1511 27.9045 35.1511C29.6274 35.1511 31.0292 33.7493 31.0292 32.0264C31.0291 30.6 29.1488 27.8915 28.5726 27.0955ZM27.9044 33.5013C27.0911 33.5013 26.4294 32.8396 26.4294 32.0263C26.4294 31.5419 27.1124 30.2577 27.904 29.0392C28.6975 30.2643 29.3795 31.5558 29.3795 32.0263C29.3796 32.8397 28.7179 33.5013 27.9044 33.5013Z" fill="url(#paint9_linear)"/>
</g>
<defs>
<linearGradient id="paint0_linear" x1="27.7814" y1="47.3708" x2="56.2161" y2="46.7625" gradientUnits="userSpaceOnUse">
<stop stop-color="#FCAF45"/>
<stop offset="0.197917" stop-color="#F77737"/>
<stop offset="0.395833" stop-color="#FD1D1D"/>
<stop offset="0.59375" stop-color="#C13584"/>
<stop offset="0.796875" stop-color="#833AB4"/>
<stop offset="1" stop-color="#405DE6"/>
</linearGradient>
<linearGradient id="paint1_linear" x1="3.65503" y1="40.3563" x2="22.8033" y2="40.2065" gradientUnits="userSpaceOnUse">
<stop stop-color="#FCAF45"/>
<stop offset="0.197917" stop-color="#F77737"/>
<stop offset="0.395833" stop-color="#FD1D1D"/>
<stop offset="0.59375" stop-color="#C13584"/>
<stop offset="0.796875" stop-color="#833AB4"/>
<stop offset="1" stop-color="#405DE6"/>
</linearGradient>
<linearGradient id="paint2_linear" x1="8.9613" y1="50.3925" x2="17.7563" y2="50.0416" gradientUnits="userSpaceOnUse">
<stop stop-color="#FCAF45"/>
<stop offset="0.197917" stop-color="#F77737"/>
<stop offset="0.395833" stop-color="#FD1D1D"/>
<stop offset="0.59375" stop-color="#C13584"/>
<stop offset="0.796875" stop-color="#833AB4"/>
<stop offset="1" stop-color="#405DE6"/>
</linearGradient>
<linearGradient id="paint3_linear" x1="0.858521" y1="11.6272" x2="31.2368" y2="11.1089" gradientUnits="userSpaceOnUse">
<stop stop-color="#FCAF45"/>
<stop offset="0.197917" stop-color="#F77737"/>
<stop offset="0.395833" stop-color="#FD1D1D"/>
<stop offset="0.59375" stop-color="#C13584"/>
<stop offset="0.796875" stop-color="#833AB4"/>
<stop offset="1" stop-color="#405DE6"/>
</linearGradient>
<linearGradient id="paint4_linear" x1="11.6843" y1="10.432" x2="19.5575" y2="10.3263" gradientUnits="userSpaceOnUse">
<stop stop-color="#FCAF45"/>
<stop offset="0.197917" stop-color="#F77737"/>
<stop offset="0.395833" stop-color="#FD1D1D"/>
<stop offset="0.59375" stop-color="#C13584"/>
<stop offset="0.796875" stop-color="#833AB4"/>
<stop offset="1" stop-color="#405DE6"/>
</linearGradient>
<linearGradient id="paint5_linear" x1="40.5977" y1="22.4104" x2="48.4708" y2="22.3047" gradientUnits="userSpaceOnUse">
<stop stop-color="#FCAF45"/>
<stop offset="0.197917" stop-color="#F77737"/>
<stop offset="0.395833" stop-color="#FD1D1D"/>
<stop offset="0.59375" stop-color="#C13584"/>
<stop offset="0.796875" stop-color="#833AB4"/>
<stop offset="1" stop-color="#405DE6"/>
</linearGradient>
<linearGradient id="paint6_linear" x1="31.7688" y1="22.5269" x2="55.6875" y2="22.274" gradientUnits="userSpaceOnUse">
<stop stop-color="#FCAF45"/>
<stop offset="0.197917" stop-color="#F77737"/>
<stop offset="0.395833" stop-color="#FD1D1D"/>
<stop offset="0.59375" stop-color="#C13584"/>
<stop offset="0.796875" stop-color="#833AB4"/>
<stop offset="1" stop-color="#405DE6"/>
</linearGradient>
<linearGradient id="paint7_linear" x1="9.17493" y1="38.2061" x2="19.6792" y2="38.0986" gradientUnits="userSpaceOnUse">
<stop stop-color="#FCAF45"/>
<stop offset="0.197917" stop-color="#F77737"/>
<stop offset="0.395833" stop-color="#FD1D1D"/>
<stop offset="0.59375" stop-color="#C13584"/>
<stop offset="0.796875" stop-color="#833AB4"/>
<stop offset="1" stop-color="#405DE6"/>
</linearGradient>
<linearGradient id="paint8_linear" x1="29.3794" y1="4.55315" x2="53.9453" y2="3.68204" gradientUnits="userSpaceOnUse">
<stop stop-color="#FCAF45"/>
<stop offset="0.197917" stop-color="#F77737"/>
<stop offset="0.395833" stop-color="#FD1D1D"/>
<stop offset="0.59375" stop-color="#C13584"/>
<stop offset="0.796875" stop-color="#833AB4"/>
<stop offset="1" stop-color="#405DE6"/>
</linearGradient>
<linearGradient id="paint9_linear" x1="24.7799" y1="30.9978" x2="31.2769" y2="30.9329" gradientUnits="userSpaceOnUse">
<stop stop-color="#FCAF45"/>
<stop offset="0.197917" stop-color="#F77737"/>
<stop offset="0.395833" stop-color="#FD1D1D"/>
<stop offset="0.59375" stop-color="#C13584"/>
<stop offset="0.796875" stop-color="#833AB4"/>
<stop offset="1" stop-color="#405DE6"/>
</linearGradient>
<clipPath id="clip0">
<rect width="56" height="56" fill="white"/>
</clipPath>
</defs>
</svg>

<svg width="56" height="56" viewBox="0 0 56 56" fill="none" xmlns="http://www.w3.org/2000/svg"><g clip-path="url(#clip0)"><path d="M54.9 41.603a9.881 9.881 0 00-7.033-2.913 9.87 9.87 0 00-6.406 2.337c-3.904-3.29-9.763-3.099-13.438.576a.824.824 0 00-.242.584c0 7.543 6.137 13.68 13.68 13.68 7.544 0 13.68-6.137 13.68-13.68a.825.825 0 00-.241-.584zm-14.236.92a.825.825 0 00.753.488h.088a.825.825 0 00.754-.489 8.237 8.237 0 015.608-2.182c1.888 0 3.678.628 5.136 1.782-6.533 5.992-16.61 6.016-23.17.07 3.164-2.568 7.793-2.46 10.831.33zm.797 11.694c-5.964 0-10.927-4.362-11.869-10.064a18.81 18.81 0 0011.788 4.13c4.255 0 8.509-1.428 11.975-4.282-.877 5.776-5.877 10.216-11.894 10.216z" fill="url(#paint0_linear)"/><path d="M21.67 24.488a.825.825 0 00-.816-.015c-.147.08-3.633 1.996-7.503 6-3.572 3.696-8.14 9.94-9.614 18.699A5.839 5.839 0 005.04 53.92 5.859 5.859 0 009.522 56h7.46a5.096 5.096 0 005.09-5.09V25.197c0-.29-.153-.56-.403-.709zM20.422 50.91a3.445 3.445 0 01-3.44 3.44H9.521a4.212 4.212 0 01-4.159-4.904c1.401-8.318 5.74-14.262 9.133-17.784 2.36-2.449 4.603-4.102 5.927-4.983v24.23z" fill="url(#paint1_linear)"/><path d="M13.197 48.95c-2.108 0-4.236.628-4.236 2.029a.825.825 0 001.636.15c.244-.199 1.184-.529 2.6-.529 1.417 0 2.356.33 2.6.529a.825.825 0 001.636-.15c0-1.401-2.127-2.028-4.236-2.028z" fill="url(#paint2_linear)"/><path d="M29.935 12.889c-.203-.29-3.986-5.616-9.369-8.017l1.43-3.07a.825.825 0 10-1.496-.696l-1.479 3.178a12.259 12.259 0 00-2.336-.5V.825a.825.825 0 10-1.65 0v2.902c-.83.033-1.641.16-2.428.361l-1.387-2.98a.825.825 0 00-1.496.695L11.027 4.6C5.3 6.84 1.218 12.587 1.007 12.89a.825.825 0 000 .945c.263.375 6.511 9.173 14.464 9.173s14.202-8.798 14.464-9.173a.825.825 0 000-.945zM11.032 6.392c1.392-.626 2.888-1.027 4.44-1.027 1.551 0 3.049.403 4.443 1.031a6.158 6.158 0 011.757 4.323 6.16 6.16 0 01-1.816 4.384 6.16 6.16 0 01-4.385 1.816 6.16 6.16 0 01-4.384-1.816 6.207 6.207 0 01-.055-8.711zm4.44 14.966c-6.104 0-11.372-6.214-12.758-7.997.765-.987 2.716-3.326 5.34-5.222a7.86 7.86 0 00-.433 2.58c0 2.097.817 4.068 2.3 5.55a7.798 7.798 0 005.55 2.3 7.799 7.799 0 005.551-2.3 7.798 7.798 0 002.3-5.55 7.86 7.86 0 00-.432-2.574c2.621 1.894 4.572 4.23 5.338 5.217-1.387 1.784-6.654 7.996-12.757 7.996z" fill="url(#paint3_linear)"/><path d="M15.471 6.604a3.791 3.791 0 00-3.787 3.787 3.791 3.791 0 003.787 3.787 3.791 3.791 0 003.787-3.787 3.791 3.791 0 00-3.787-3.787zm0 5.924a2.14 2.14 0 01-2.137-2.137 2.14 2.14 0 012.137-2.137 2.14 2.14 0 012.137 2.137 2.14 2.14 0 01-2.137 2.137z" fill="url(#paint4_linear)"/><path d="M44.384 18.583a3.791 3.791 0 00-3.786 3.787 3.791 3.791 0 003.786 3.787 3.791 3.791 0 003.787-3.787 3.791 3.791 0 00-3.787-3.787zm0 5.924a2.14 2.14 0 01-2.137-2.137 2.14 2.14 0 012.137-2.137 2.14 2.14 0 012.138 2.137 2.14 2.14 0 01-2.138 2.137z" fill="url(#paint5_linear)"/><path d="M53.95 23.583a.825.825 0 100-1.65h-2.9a11.67 11.67 0 00-.362-2.427l2.981-1.388a.825.825 0 10-.696-1.495l-2.797 1.302c-2.24-5.726-7.988-9.808-8.289-10.019a.825.825 0 00-.946 0c-.374.262-9.172 6.51-9.172 14.464 0 7.953 8.798 14.201 9.172 14.464a.823.823 0 00.946 0c.29-.203 5.616-3.987 8.016-9.37l3.07 1.43a.82.82 0 001.096-.4.824.824 0 00-.4-1.095l-3.177-1.48c.238-.754.41-1.535.499-2.336h2.96zM41.415 35.127c-1.785-1.384-7.996-6.644-7.996-12.757 0-6.103 6.214-11.372 7.997-12.758.986.766 3.326 2.716 5.221 5.34a7.857 7.857 0 00-2.579-.432 7.799 7.799 0 00-5.55 2.299 7.798 7.798 0 00-2.3 5.55c0 2.098.816 4.069 2.3 5.552a7.798 7.798 0 005.55 2.299c.89 0 1.757-.148 2.574-.431-1.895 2.621-4.232 4.572-5.217 5.338zm6.965-8.313a6.157 6.157 0 01-4.322 1.756 6.16 6.16 0 01-4.385-1.816 6.16 6.16 0 01-1.816-4.384 6.16 6.16 0 011.816-4.385 6.16 6.16 0 014.385-1.816c1.63 0 3.162.626 4.327 1.761.626 1.392 1.026 2.888 1.026 4.44 0 1.552-.402 3.05-1.03 4.444z" fill="url(#paint6_linear)"/><path d="M19.146 31.886a.825.825 0 00-1.141-.242C12.2 35.41 9.342 43.323 9.223 43.657a.825.825 0 101.554.552c.028-.077 2.786-7.718 8.126-11.183a.825.825 0 00.243-1.14z" fill="url(#paint7_linear)"/><path d="M52.286 4.607A15.56 15.56 0 0041.208.025a15.56 15.56 0 00-11.077 4.582 2.548 2.548 0 00-.752 1.813 2.568 2.568 0 004.378 1.813c4.109-4.107 10.794-4.107 14.902 0a2.548 2.548 0 001.813.752 2.55 2.55 0 001.814-.751c1-1 1-2.627 0-3.627zm-1.167 2.46a.91.91 0 01-.647.268.91.91 0 01-.647-.268 12.148 12.148 0 00-8.617-3.563c-3.12 0-6.241 1.188-8.617 3.563a.916.916 0 01-1.294-1.294 13.92 13.92 0 019.911-4.098c3.749 0 7.269 1.455 9.911 4.098a.909.909 0 01.269.647.908.908 0 01-.269.647z" fill="url(#paint8_linear)"/><path d="M28.573 27.096a.825.825 0 00-1.337 0c-.576.796-2.456 3.504-2.456 4.93a3.128 3.128 0 003.124 3.125 3.128 3.128 0 003.125-3.125c0-1.426-1.88-4.135-2.456-4.93zm-.669 6.405a1.477 1.477 0 01-1.475-1.475c0-.484.683-1.768 1.475-2.987.794 1.225 1.476 2.517 1.476 2.987 0 .814-.662 1.475-1.476 1.475z" fill="url(#paint9_linear)"/></g><defs><linearGradient id="paint0_linear" x1="27.781" y1="47.371" x2="56.216" y2="46.763" gradientUnits="userSpaceOnUse"><stop stop-color="#FCAF45"/><stop offset=".198" stop-color="#F77737"/><stop offset=".396" stop-color="#FD1D1D"/><stop offset=".594" stop-color="#C13584"/><stop offset=".797" stop-color="#833AB4"/><stop offset="1" stop-color="#405DE6"/></linearGradient><linearGradient id="paint1_linear" x1="3.655" y1="40.356" x2="22.803" y2="40.206" gradientUnits="userSpaceOnUse"><stop stop-color="#FCAF45"/><stop offset=".198" stop-color="#F77737"/><stop offset=".396" stop-color="#FD1D1D"/><stop offset=".594" stop-color="#C13584"/><stop offset=".797" stop-color="#833AB4"/><stop offset="1" stop-color="#405DE6"/></linearGradient><linearGradient id="paint2_linear" x1="8.961" y1="50.392" x2="17.756" y2="50.042" gradientUnits="userSpaceOnUse"><stop stop-color="#FCAF45"/><stop offset=".198" stop-color="#F77737"/><stop offset=".396" stop-color="#FD1D1D"/><stop offset=".594" stop-color="#C13584"/><stop offset=".797" stop-color="#833AB4"/><stop offset="1" stop-color="#405DE6"/></linearGradient><linearGradient id="paint3_linear" x1=".859" y1="11.627" x2="31.237" y2="11.109" gradientUnits="userSpaceOnUse"><stop stop-color="#FCAF45"/><stop offset=".198" stop-color="#F77737"/><stop offset=".396" stop-color="#FD1D1D"/><stop offset=".594" stop-color="#C13584"/><stop offset=".797" stop-color="#833AB4"/><stop offset="1" stop-color="#405DE6"/></linearGradient><linearGradient id="paint4_linear" x1="11.684" y1="10.432" x2="19.558" y2="10.326" gradientUnits="userSpaceOnUse"><stop stop-color="#FCAF45"/><stop offset=".198" stop-color="#F77737"/><stop offset=".396" stop-color="#FD1D1D"/><stop offset=".594" stop-color="#C13584"/><stop offset=".797" stop-color="#833AB4"/><stop offset="1" stop-color="#405DE6"/></linearGradient><linearGradient id="paint5_linear" x1="40.598" y1="22.41" x2="48.471" y2="22.305" gradientUnits="userSpaceOnUse"><stop stop-color="#FCAF45"/><stop offset=".198" stop-color="#F77737"/><stop offset=".396" stop-color="#FD1D1D"/><stop offset=".594" stop-color="#C13584"/><stop offset=".797" stop-color="#833AB4"/><stop offset="1" stop-color="#405DE6"/></linearGradient><linearGradient id="paint6_linear" x1="31.769" y1="22.527" x2="55.688" y2="22.274" gradientUnits="userSpaceOnUse"><stop stop-color="#FCAF45"/><stop offset=".198" stop-color="#F77737"/><stop offset=".396" stop-color="#FD1D1D"/><stop offset=".594" stop-color="#C13584"/><stop offset=".797" stop-color="#833AB4"/><stop offset="1" stop-color="#405DE6"/></linearGradient><linearGradient id="paint7_linear" x1="9.175" y1="38.206" x2="19.679" y2="38.099" gradientUnits="userSpaceOnUse"><stop stop-color="#FCAF45"/><stop offset=".198" stop-color="#F77737"/><stop offset=".396" stop-color="#FD1D1D"/><stop offset=".594" stop-color="#C13584"/><stop offset=".797" stop-color="#833AB4"/><stop offset="1" stop-color="#405DE6"/></linearGradient><linearGradient id="paint8_linear" x1="29.379" y1="4.553" x2="53.945" y2="3.682" gradientUnits="userSpaceOnUse"><stop stop-color="#FCAF45"/><stop offset=".198" stop-color="#F77737"/><stop offset=".396" stop-color="#FD1D1D"/><stop offset=".594" stop-color="#C13584"/><stop offset=".797" stop-color="#833AB4"/><stop offset="1" stop-color="#405DE6"/></linearGradient><linearGradient id="paint9_linear" x1="24.78" y1="30.998" x2="31.277" y2="30.933" gradientUnits="userSpaceOnUse"><stop stop-color="#FCAF45"/><stop offset=".198" stop-color="#F77737"/><stop offset=".396" stop-color="#FD1D1D"/><stop offset=".594" stop-color="#C13584"/><stop offset=".797" stop-color="#833AB4"/><stop offset="1" stop-color="#405DE6"/></linearGradient><clipPath id="clip0"><path fill="#fff" d="M0 0h56v56H0z"/></clipPath></defs></svg>
